X:1
T:Going Home Rejoicing
T:John Robson Sweney
T:Going Home Rejoicing
T:Public Domain
T:Public Domain
T:Public Domain
T:Public Domain
C:John Robson Sweney
Z:Public Domain
%%score ( 1 2 ) ( 3 4 )
L:1/8
M:4/4
K:Ab
V:1 treble 
V:2 treble 
V:3 bass 
V:4 bass 
V:1
 [CE][CE] | [CE]<[CA] [CA][DB] [Ec]<[Ec] [Ec][EB] | [EA]>[EA] [EA][Ec] [Ee]2 [Ee][Ee] | %3
w: 1.~We are|go- ing home re- joic- ing, Where our|Fa- ther’s dwell- ing stands, We are|
w: 2.~We are|go- ing in a ves- sel That we|know is firm and strong; ’Tis the|
w: 3.~We are|go- ing home re- joic- ing, Praise the|Lord we’re go- ing home! Where for-|
 [Ee]<[Ed] [EB][Ed] [Ed]<[Ec] [CA][Ec] | [=DB]>[DF] [DA][DA] [EG]2 [_DF][DE] | %5
w: go- ing home re- joic- ing, To a|house not made with hands; We are|
w: good old ship of Zi- on That has|stood the storm so long; Count- less|
w: ev- er and for- ev- er, With the|Sav- ior we shall roam; Clad in|
 [CE]<[CA] [CA][DB] [Ec]<[Ec] [Ec][EB] | [EA]>[EA] [EA][Ec] [Ee]2 [_Ge][Ge] | %7
w: go- ing home to Je- sus, Who re-|deemed us with His blood, Hal- le-|
w: mill- ions it has an- chored, And will|an- chor mill- ions more, In the|
w: robes that He has brought us— Pre- cious|gar- ments of His grace— We shall|
 [Fe]<[Fd] [Af][Af] [Ae]<[Ac] [EA][Ec] | [Ec]>[DB] [DF][DG] [CA]2 ||"^Refrain" [CE][CE] | %10
w: lu- jah! hal- le- lu- jah! Soon we’ll|cross the swell- ing flood.||
w: port of life e- ter- nal, On the|bright ce- les- tial shore.|Soon we’ll|
w: see Him in His glo- ry, And be-|hold Him face to face.||
 [CE]>[DF] [CA][DB] [Ec]2 [CA]>[DB] | [CA]4 [CE]2 [CE][CE] | [DF]<[FA] [DF]<[FA] E[EA] [EB]>[Ec] | %13
w: |||
w: cross the swell- ing flood of the|Jor- dan, And the|hap- py, hap- py time is draw- ing|
w: |||
 [EB]6 [EA][EB] | [Ec][Ee][CA][DB] [Ec]2 EE | [DF]4 [FA]2 [FB][Fd] | %16
w: |||
w: In the gold-|en fields of rest, o- ver Jor-|shall ga- ther, we|
w: |||
 [Ed]<[Ec] [EA][Ec] [Ec]<[DB] [DF][DG] | [CA]6 |] %18
w: ||
w: shall ga- ther by and by. * *||
w: ||
V:2
 x2 | x8 | x8 | x8 | x8 | x8 | x8 | x8 | x6 || x2 | x8 | x8 | x4 E x3 | x8 | x6 EE | x8 | x8 | %17
w: |||||||||||||||||
w: ||||||||||||nigh;||dan, We|||
 x6 |] %18
w: |
w: |
V:3
 [A,,A,][A,,A,] | [A,,A,]<[A,,E,] [A,,E,][A,,E,] [A,,A,]<[A,,A,] A,[A,D] | %2
w: ~ ~|~ ~ ~ ~ ~ ~ ~ ~|
 [A,C]>[A,C] [A,C]A, [A,C]2 [A,C][A,C] | [E,C]<[E,B,] [E,G,][G,B,] [A,B,]<A, [A,,E,][A,,A,] | %4
w: ~ ~ ~ ~ ~ ~ ~|~ ~ ~ ~ ~ ~ ~ ~|
 [B,,F,]>[B,,B,] [B,,B,][B,,B,] [E,B,]2 [E,A,][E,G,] | %5
w: ~ ~ ~ ~ ~ ~ ~|
 [A,,A,]<[A,,E,] [A,,E,][A,,E,] [A,,A,]<[A,,A,] A,[A,D] | [A,C]>[A,C] [A,C]A, [A,C]2 [A,C][A,C] | %7
w: ~ ~ ~ ~ ~ ~ ~ ~|~ ~ ~ ~ ~ ~ ~|
 [D,D]<[D,A,] [D,D][D,D] [A,C]<[A,E] [A,,C][A,,A,] | [E,A,]>[E,G,] [E,B,][E,B,] [A,,A,]2 || %9
w: ~ ~ ~ ~ ~ ~ ~ ~|~ ~ ~ ~ ~|
 [A,,A,][A,,A,] | [A,,A,]>[A,,A,] [A,,E,][A,,E,] [A,,A,]2 [A,,E,]>[A,,E,] | %11
w: ~ ~|~ ~ ~ ~ ~ ~ ~|
 [A,,E,]4 [A,,A,]2 [A,,A,][A,,A,] | [D,A,]<[D,A,] [D,A,]<[D,A,] [C,A,][C,A,] [B,,G,]>[A,,A,] | %13
w: ~ ~ ~ ~|~ ~ ~ ~ draw- ing nigh, *|
 [E,G,]2 [E,G,]>[E,G,] ([E,G,][D,B,])[C,A,][B,,G,] | %14
w: |
 [A,,A,][A,,C][A,,E,][A,,E,] [A,,A,]2 [C,A,][C,A,] | [D,A,]4 [D,D]2 [D,D][D,B,] | %16
w: ||
 [E,B,]<[E,A,] [E,C][E,A,] [E,A,]<[E,G,] [E,B,][E,B,] | [A,,A,]6 |] %18
w: ||
V:4
 x2 | x6 A, x | x3 A, x4 | x9/2 A,3/2 x2 | x8 | x6 A, x | x3 A, x4 | x8 | x6 || x2 | x8 | x8 | x8 | %13
w: |~|~|~||~|~|||||||
 x8 | x8 | x8 | x8 | x6 |] %18
w: |||||

